img/on-1.svg

<svg width="44" height="40" viewBox="0 0 44 40" fill="none" xmlns="http://www.w3.org/2000/svg">
<rect width="40" height="40" rx="20" fill="#F5E9EA"/>
<g clip-path="url(#clip0_1239_193)">
<path d="M43.9994 24.2416C43.9994 21.2634 42.2908 18.6054 39.7319 17.3125C39.6525 23.0228 35.0228 27.6525 29.3125 27.7319C30.6054 30.2908 33.2634 31.9994 36.2416 31.9994C37.6379 31.9994 38.9958 31.6275 40.189 30.9209L43.9655 31.9655L42.9209 28.189C43.6275 26.9958 43.9994 25.6379 43.9994 24.2416Z" fill="#C9BA81"/>
<path d="M38.3281 17.1641C38.3281 12.1109 34.2172 8 29.1641 8C24.1109 8 20 12.1109 20 17.1641C20 18.8109 20.4384 20.4144 21.2708 21.8221L20.0337 26.2943L24.506 25.0574C25.9138 25.8898 27.5172 26.3281 29.1641 26.3281C34.2172 26.3281 38.3281 22.2172 38.3281 17.1641ZM27.7578 15.0313H26.3516C26.3516 13.4803 27.6132 12.2188 29.1641 12.2188C30.715 12.2188 31.9766 13.4803 31.9766 15.0313C31.9766 15.8184 31.6433 16.575 31.062 17.1068L29.8672 18.2003V19.2969H28.4609V17.581L30.1125 16.0693C30.4077 15.7992 30.5703 15.4306 30.5703 15.0313C30.5703 14.2558 29.9395 13.625 29.1641 13.625C28.3886 13.625 27.7578 14.2558 27.7578 15.0313ZM28.4609 20.7031H29.8672V22.1094H28.4609V20.7031Z" fill="#DA2B36"/>
</g>
<defs>
<clipPath id="clip0_1239_193">
<rect width="24" height="24" fill="white" transform="translate(20 8)"/>
</clipPath>
</defs>
</svg>

<svg width="44" height="40" fill="none" xmlns="http://www.w3.org/2000/svg"><rect width="40" height="40" rx="20" fill="#F5E9EA"/><g clip-path="url(#a)"><path d="M44 24.242a7.782 7.782 0 0 0-4.268-6.93c-.08 5.71-4.71 10.34-10.42 10.42a7.782 7.782 0 0 0 6.93 4.267 7.73 7.73 0 0 0 3.947-1.078l3.776 1.044-1.044-3.776a7.73 7.73 0 0 0 1.078-3.947Z" fill="#C9BA81"/><path d="M38.328 17.164c0-5.053-4.11-9.164-9.164-9.164C24.111 8 20 12.11 20 17.164c0 1.647.438 3.25 1.27 4.658l-1.236 4.472 4.472-1.237a9.136 9.136 0 0 0 4.658 1.271c5.053 0 9.164-4.11 9.164-9.164Zm-10.57-2.133h-1.406a2.816 2.816 0 0 1 2.812-2.812 2.816 2.816 0 0 1 2.813 2.812 2.82 2.82 0 0 1-.915 2.076L29.867 18.2v1.097h-1.406V17.58l1.652-1.512a1.408 1.408 0 0 0-.948-2.444c-.776 0-1.407.63-1.407 1.406Zm.703 5.672h1.406v1.406h-1.406v-1.406Z" fill="#DA2B36"/></g><defs><clipPath id="a"><path fill="#fff" transform="translate(20 8)" d="M0 0h24v24H0z"/></clipPath></defs></svg>
